lock-minus.svg

<svg fill="currentColor" viewBox="0 0 24 24"><path d="M19 13c.34 0 .67.04 1 .09V10a2 2 0 0 0-2-2h-1V6c0-2.76-2.24-5-5-5S7 3.24 7 6v2H6a2 2 0 0 0-2 2v10c0 1.11.89 2 2 2h7.81c-.51-.88-.81-1.9-.81-3 0-3.31 2.69-6 6-6M9 6c0-1.66 1.34-3 3-3s3 1.34 3 3v2H9zm3 11a2 2 0 1 1 2-2c0 1.11-.89 2-2 2m11 1v2h-8v-2z"/></svg>

<svg  viewBox="0 0 24 24" fill="currentColor"><path  d="M19 13C19.34 13 19.67 13.04 20 13.09V10C20 8.9 19.11 8 18 8H17V6C17 3.24 14.76 1 12 1S7 3.24 7 6V8H6C4.9 8 4 8.89 4 10V20C4 21.11 4.89 22 6 22H13.81C13.3 21.12 13 20.1 13 19C13 15.69 15.69 13 19 13M9 6C9 4.34 10.34 3 12 3S15 4.34 15 6V8H9V6M12 17C10.9 17 10 16.11 10 15S10.9 13 12 13C13.1 13 14 13.89 14 15C14 16.11 13.11 17 12 17M23 18V20H15V18H23Z"/></svg>
